X:1
T:Bärghuis-Juiz.  Bb  ABAC
T:Meinen lieben Eltern Verena und Paul Rohrer gewidmet
T:Andrea Rohrer (12.05.1973)
T:Dirigenten-Notiz  Edi Gasser
C:Unterwalden (CH)
%%partsbox
P:ABAC
R:Naturjodel
M:none
L:1/4
K:Bb
[P:A] FDFdBFedBFdcFFdc3FEFfdc 
 EFd/c/BDFdB3FDFdBFedB
FdcFFdc3FEFfdcEFdcB2 ||
L:1/8
M:2/4
[P:B] FF/D/ Ff | dF dB | AF FA | E4 | FF/E/ Ff | eF ec | BA Bc | d4 | 
FF/D/ Ff | dF dB | AF FA | E4 | FF/E/ Ff | eF dc | (B4 | B2)z2 || 
L:1/4
M:3/4
[P:C] d>c B/D/ | F>BD | d>Bd | c3 | c>B A/G/ | F>AE | fcd | B3 | 
d>c B/D/ | F>BD | d>Bd | c3 | c>B A/G/ | F>AE | fcd | B3 | 
d>c B/D/ | F>BD | d>Bd | c3 | c>B A/G/ | F>AE | fcd | B3 | 
d>c B/D/ | F>BD | d>Bd | c3 | c>B A/G/ | F>AE | fcd | B3 || 
W:
%W:Reihenfolge: A - B - A - C
W:
W:notiert Edi Gasser.
W:UJV-Naturjodelsammlung: Code-Nr: 52-01
W:http://www.naturjodler.ch/code 52.htm  (with AUDIO)
%September 13, 2018

